!!!COM: Fux, Johann Joseph
!!!OMD: Gradus ad Parnassum Exercise
!!!YEC: CC0 1.0 Universal (Public Domain). Mark Gotham and FourScoreAndMore.org waive all rights to this document.
**kern	**kern	**kern	**kern
*part4	*part3	*part2	*part1
*staff4	*staff3	*staff2	*staff1
*I"4	*I"3	*I"2	*I"1
*I'Pno	*I'Pno	*I'Pno	*I'Pno
!!LO:PB:g=z
*clefF4	*clefGv2	*clefG2	*clefG2
*k[]	*k[]	*k[]	*k[]
!!LO:TX:omd:t=
*M4/4	*M4/4	*M4/4	*M4/4
=295	=295	=295	=295
!	!	!	!LO:TX:a:t=Fig. 200; Species&colon; 5; Modal final&colon; d; Cantus firmus&colon; 2
1D	1A	1d	2r
.	.	.	[2a/
=296	=296	=296	=296
1D	1F	1f	4a/]
.	.	.	4f/
.	.	.	4a/
.	.	.	4b\
=297	=297	=297	=297
1C	1G	1e	4cc\
.	.	.	4g/
.	.	.	[2cc\
=298	=298	=298	=298
1G	1G	1d	2cc\]
.	.	.	[2b\
=299	=299	=299	=299
1E	1G	1g	2b\]
.	.	.	2cc#X\
=300	=300	=300	=300
1D	1A	1f	4dd\
.	.	.	4a/
.	.	.	[2dd\
=301	=301	=301	=301
1F	1A	1a	4dd\]
.	.	.	4cc\
.	.	.	[2ff\
=302	=302	=302	=302
1C	1c	1g	2ff\]
.	.	.	[2ee\
=303	=303	=303	=303
1D	1A	1f	4ee\]
.	.	.	4a/
.	.	.	[2dd\
=304	=304	=304	=304
1AA	1A	1e	2dd\]
.	.	.	2cc#X\
=305	=305	=305	=305
1D	1A	1d	1dd
==	==	==	==
*-	*-	*-	*-
!!!software: music21 v.9.7.1
!!!software: music21 v.9.7.1
!!!software: MuseScore 3.4.2
!!!RDF**kern: > = above
!!!RDF**kern: < = below
